Numix/24/panel/kazam-stopped.svg

<?xml version="1.0" encoding="UTF-8" standalone="no"?>
<!-- Created with Inkscape (http://www.inkscape.org/) -->

<svg
   xmlns:dc="http://purl.org/dc/elements/1.1/"
   xmlns:cc="http://creativecommons.org/ns#"
   xmlns:rdf="http://www.w3.org/1999/02/22-rdf-syntax-ns#"
   xmlns:svg="http://www.w3.org/2000/svg"
   xmlns="http://www.w3.org/2000/svg"
   xmlns:sodipodi="http://sodipodi.sourceforge.net/DTD/sodipodi-0.dtd"
   xmlns:inkscape="http://www.inkscape.org/namespaces/inkscape"
   id="svg2"
   version="1.1"
   inkscape:version="0.91 r"
   width="24"
   height="24"
   viewBox="0 0 24 24"
   sodipodi:docname="kazam-stopped.svg">
  <metadata
     id="metadata8">
    <rdf:RDF>
      <cc:Work
         rdf:about="">
        <dc:format>image/svg+xml</dc:format>
        <dc:type
           rdf:resource="http://purl.org/dc/dcmitype/StillImage" />
        <dc:title />
      </cc:Work>
    </rdf:RDF>
  </metadata>
  <defs
     id="defs6" />
  <sodipodi:namedview
     pagecolor="#ffffff"
     bordercolor="#666666"
     borderopacity="1"
     objecttolerance="10"
     gridtolerance="10"
     guidetolerance="10"
     inkscape:pageopacity="0"
     inkscape:pageshadow="2"
     inkscape:window-width="1366"
     inkscape:window-height="747"
     id="namedview4"
     showgrid="true"
     inkscape:zoom="10.727273"
     inkscape:cx="2.6672628"
     inkscape:cy="5.1416886"
     inkscape:window-x="0"
     inkscape:window-y="21"
     inkscape:window-maximized="1"
     inkscape:current-layer="svg2">
    <inkscape:grid
       type="xygrid"
       id="grid4138" />
  </sodipodi:namedview>
  <path
     style="color:#000000;font-style:normal;font-variant:normal;font-weight:normal;font-stretch:normal;font-size:medium;line-height:normal;font-family:sans-serif;text-indent:0;text-align:start;text-decoration:none;text-decoration-line:none;text-decoration-style:solid;text-decoration-color:#000000;letter-spacing:normal;word-spacing:normal;text-transform:none;direction:ltr;block-progression:tb;writing-mode:lr-tb;baseline-shift:baseline;text-anchor:start;white-space:normal;clip-rule:nonzero;display:inline;overflow:visible;visibility:visible;opacity:1;isolation:auto;mix-blend-mode:normal;color-interpolation:sRGB;color-interpolation-filters:linearRGB;solid-color:#000000;solid-opacity:1;fill:#ececec;fill-opacity:1;fill-rule:evenodd;stroke:none;stroke-width:1;stroke-linecap:butt;stroke-linejoin:round;stroke-miterlimit:4;stroke-dasharray:none;stroke-dashoffset:0;stroke-opacity:1;color-rendering:auto;image-rendering:auto;shape-rendering:auto;text-rendering:auto;enable-background:accumulate"
     d="M 3,5 C 2.7238691,5.0000276 2.5000276,5.2238691 2.5,5.5 l 0,13 c 2.76e-5,0.276131 0.2238691,0.499972 0.5,0.5 l 12,0 c 0.276131,-2.8e-5 0.499972,-0.223869 0.5,-0.5 l 0,-3.191406 5.277344,2.638672 C 21.109563,18.112428 21.499627,17.871009 21.5,17.5 l 0,-11 C 21.499627,6.1289908 21.109563,5.8875729 20.777344,6.0527344 L 15.5,8.6914062 15.5,5.5 C 15.499972,5.2238691 15.276131,5.0000276 15,5 L 3,5 Z M 6.2285156,9 11.771484,9 C 11.897865,9.000141 11.999847,9.09319 12,9.208984 l 0,5.582032 C 11.999847,14.906813 11.897865,14.999859 11.771484,15 L 6.2285156,15 C 6.1021344,14.999859 6.0001537,14.906814 6,14.791016 L 6,9.208984 C 6.0001536,9.093188 6.1021343,9.000141 6.2285156,9 Z"
     id="path4140"
     inkscape:connector-curvature="0" />
</svg>

<!-- Created with Inkscape (http://www.inkscape.org/) -->
<svg xmlns="http://www.w3.org/2000/svg" viewBox="0 0 24 24">
 <path d="m 3 5 c -0.276 0 -0.5 0.224 -0.5 0.5 l 0 13 c 0 0.276 0.224 0.5 0.5 0.5 l 12 0 c 0.276 0 0.5 -0.224 0.5 -0.5 l 0 -3.191 5.277 2.639 c 0.332 0.165 0.722 -0.076 0.723 -0.447 l 0 -11 c 0 -0.371 -0.39 -0.612 -0.723 -0.447 l -5.277 2.639 0 -3.191 c 0 -0.276 -0.224 -0.5 -0.5 -0.5 l -12 0 m 3.229 4 5.543 0 c 0.126 0 0.228 0.093 0.229 0.209 l 0 5.582 c 0 0.116 -0.102 0.209 -0.229 0.209 l -5.543 0 c -0.126 0 -0.228 -0.093 -0.229 -0.209 l 0 -5.582 c 0 -0.116 0.102 -0.209 0.229 -0.209" mix-blend-mode="normal" isolation="auto" white-space="normal" solid-opacity="1" solid-color="#000000" style="visibility:visible;shape-rendering:auto;color-interpolation-filters:linearRGB;fill:#ececec;opacity:1;image-rendering:auto;fill-opacity:1;stroke:none;display:inline;color:#000;fill-rule:evenodd;color-rendering:auto;color-interpolation:sRGB"/>
</svg>
